pk/dislike.svg

<svg viewBox="0 0 48 48" fill="none" xmlns="http://www.w3.org/2000/svg" height="1em" width="1em">
  <path d="M24 31L21 26L28 20L19 15L20 9.19942C18.4999 8.43256 16.8004 8 15 8C8.92487 8 4 12.9249 4 19C4 30 17 40 24 42C31 40 44 30 44 19C44 12.9249 39.0751 8 33 8C31.1996 8 29.5001 8.43256 28 9.19942" stroke="black" stroke-width="4" stroke-linecap="round" stroke-linejoin="round"/>
</svg>

<svg viewBox="0 0 48 48" fill="none" xmlns="http://www.w3.org/2000/svg" height="1em" width="1em">
  <path d="m24 31-3-5 7-6-9-5 1-5.8C18.5 8.432 16.8 8 15 8 8.925 8 4 12.925 4 19c0 11 13 21 20 23 7-2 20-12 20-23 0-6.075-4.925-11-11-11-1.8 0-3.5.433-5 1.2" stroke="#000" stroke-width="4" stroke-linecap="round" stroke-linejoin="round"/>
</svg>
